icons/edit-geometry-32.svg

<svg id="icons" xmlns="http://www.w3.org/2000/svg" viewBox="0 0 32 32"><defs><style>.cls-1{fill:none;}</style></defs><path d="M28,20.70386l1-.99994V29H19.70319l1.00006-1H28ZM4,28V8.96387l10.02905,7.29376L28,5.08105v6.65589a2.2173,2.2173,0,0,1,1,.256V3L14,15,3,7V29h9.17957l.42871-1ZM30.68176,16.60815l-1.80139,1.79761.00031.00153L18.31537,28.97375,12.85,31.31628a.30642.30642,0,0,1-.40235-.40234l2.34259-5.46527c6.326-6.326,6.45179-6.45184,12.366-12.366a1.20328,1.20328,0,0,1,1.7262.037L30.64478,14.882A1.20327,1.20327,0,0,1,30.68176,16.60815ZM17.32391,28.31091l-1.87115-1.87054-1.40265,3.2738ZM27.90833,17.9668l-2.11127-2.111L16.03943,25.613l2.11169,2.111Zm2.02911-2.37775L28.1767,13.82782a.28518.28518,0,0,0-.19239-.09229.16318.16318,0,0,0-.12109.0542L26.50409,15.1488l2.11127,2.111,1.35919-1.3592C30.10834,15.76776,29.955,15.60663,29.93744,15.58905Z"/><rect class="cls-1" width="32" height="32"/></svg>

<svg xmlns="http://www.w3.org/2000/svg" viewBox="0 0 32 32"><path d="M28 20.704l1-1V29h-9.297l1-1H28zM4 28V8.964l10.03 7.294L28 5.08v6.656a2.217 2.217 0 0 1 1 .256V3L14 15 3 7v22h9.18l.428-1zm26.682-11.392l-1.802 1.798v.001L18.316 28.974l-5.465 2.342a.306.306 0 0 1-.402-.402l2.342-5.465 12.366-12.366a1.203 1.203 0 0 1 1.726.037l1.763 1.762a1.203 1.203 0 0 1 .037 1.726zM17.324 28.311l-1.871-1.87-1.403 3.273zm10.584-10.344l-2.11-2.111-9.759 9.757 2.112 2.111zm2.03-2.378l-1.761-1.761a.285.285 0 0 0-.193-.092.163.163 0 0 0-.12.054l-1.36 1.359 2.111 2.11 1.36-1.358c.133-.133-.02-.294-.038-.312z"/><path fill="none" d="M0 0h32v32H0z"/></svg>
